!!!!SEGMENT: pl-wumfc--n27273--001-003_szymanowski-karol--dwanascie-piesni-op-17-vii-po-burzy-spojrz-jak-niebios-lsni.krn
!!!cenid: 19xx:79
!!!COM: Szymanowski, Karol
!!!COM-rismID: pe30106403
!!!CDT: 1882-1937
!!!CNT: Polish
!!!GTL: Dwanaście pieśni Op. 17
!!!OTL: VII. Po burzy/Spójrz, jak niebios lśni
!!!OMV: 003
!!!PDT:
!!!AGN: Secular; Song
!!!YEC: Copyright 2022 Narodowy Instytut Fryderyka Chopina (https://polishscores.org)
!!!YEM: License CC-BY-4.0 (https://creativecommons.org/licenses/by/4.0)
!!!SMS-siglum: PL-Wumfc
!!!SMS-shelfmark: N27273
!!!SMS-variant:
!!!SMS-altvar:
!!!SMS-shelfwork: 001-003 G
!!!NIFC-rismSourceID: 1001177326
!!!NIFC-rismChildID: 1001177519
!!!NIFC-islandoraID: pl-wumfc:9125
!!!URL-pdf-islandora: https://repozytorium.nifc.pl/islandora/object/pl-wumfc%3A9125/datastream/PDF/view
!!!URL-scan: https://polish.musicsources.pl/pl/lokalizacje/galeria/druki-muzyczne/11976/6 @EN{Scan on Polish Music Sources Website} @PL{Skany w portalu Dziedzictwo Muzyki Polskiej w otwartym dostępie}
!!!IIIF:
!!!ONB-nifc: UWAGA: str. 6.
!!!AIN: 1 canto 1 piano
!!!key: none
**kern	**kern	**dynam	**kern	**text	**text	**dynam
*part2	*part2	*part2	*part1	*part1	*part1	*part1
*staff3	*staff2	*staff2/3	*staff1	*staff1	*staff1	*
*group2	*group2	*	*group1	*	*	*
*IGacmp	*IGacmp	*	*IGsolo	*	*	*
*ICklav	*ICklav	*	*ICvox	*	*	*
*Ipiano	*Ipiano	*	*Icanto	*	*	*
*I"Piano.	*I"Piano.	*	*I"Canto.	*	*	*
*I'	*I'	*	*I'	*	*	*
*clefF4	*clefG2	*	*clefG2	*	*	*
*k[]	*k[]	*	*k[]	*	*	*
*b:	*b:	*	*b:	*	*	*
*M3/4	*M3/4	*	*M3/4	*	*	*
*MM50	*MM50	*	*MM50	*	*	*
=1	=1	=1	=1	=1	=1	=1
*	*^	*	*	*	*	*
*Xbrackettup	*Xbrackettup	*Xbrackettup	*	*Xbrackettup	*	*	*
!!LO:TX:a:B:t=Andante dolce e affetuoso.
!!LO:TX:t=P:problem:tekst w języku polskim kursywą
!!LO:TX:t=P:problem:po 3/4 metrum 9/8 w nawiasie
!LO:TX:b:i:t=legatissimo	!	!	!	!	!	!	!
!LO:TUP:a:problem:klamra łukowa	!	!	!	!	!	!	!
12BBL 12BBB/	4ddd#X 4dd#X\	4ryy	pp	4r	.	.	.
!	!	!LO:TX:b:i:t=legatissimo\ndolcissimo	!	!	!	!	!
.	.	.	.	.	.	.	.
*clefG2	*	*	*	*	*	*	*
(<12f#X/	.	.	.	.	.	.	.
12g/J	.	.	.	.	.	.	.
*Xtuplet	*	*Xtuplet	*	*	*	*	*
!	!	!	!	!LO:TUP:a:problem:klamra łukowa	!	!	!
12g#X/L	(12ff#X/L	(24ddn\LL	.	12ddn^^\	Sieh,	Spójrz,	.
.	.	24ee-X\	.	.	.	.	.
12A#X/	12gg/	24cc#X\	.	12r	.	.	.
.	.	24ccn\	.	.	.	.	.
12B/J	12gg#X/J)	24b\	.	24r	.	.	.
!	!	!	!LO:HP:t=poco cresc.	!	!	!	!
.	.	24e#X\JJ)	<	24e#X/	der	jak	.
*clefF4	*Xtuplet	*	*	*	*	*	*
!	!	!LO:TX:t=P:problem:mixed beam	!	!LO:TUP:a:problem:klamra łukowa	!	!	!
12F#X\L	(12a#X/L	(>24en\LL	.	12f#X/	Him-	nie-	.
.	.	24fn\	.	.	.	.	.
12G\	12b/	24d#X\	.	12b\	-mel	-bios	.
.	.	24c#X\	.	.	.	.	.
12BB-X\J)	12ccn/J)	24cn\	.	12ccn\	wird	lśni	.
.	.	[24E</JJ)	.	.	.	.	.
=2	=2	=2	=2	=2	=2	=2	=2
*^	*	*	*	*	*	*	*
!	!	!LO:TX:t=P:problem:kasowniki w nawiasie	!	!	!	!	!	!
8AA 8AAA\	4ryy	(>8eenL 8gn 8en/	N(12E</L]	<	8ee\	blau;	głąb;	.
.	.	.	12F</	.	.	.	.	.
8ryy	.	[>8ddnJ [8an [<8e-X/	.	[[	16r	.	.	.
.	.	.	12F#X</J	.	.	.	.	.
.	.	.	.	.	16a/	die	jak	.
*	*	*	*Xtuplet	*	*	*	*	*
!	!	!	!	!	!LO:TUP:a:problem:klamra łukowa	!	!	!
4c/N)	8c\L	12dd/L]	(24a]LL 24e-\]	.	6b\	Schwal-	ryb-	.
.	.	.	24f\	>	.	.	.	.
.	.	12b/	24d\	.	.	.	.	.
.	8AA-XJ 8AAA-X\	.	24d-X\	.	.	.	.	.
.	.	12cc/J)	24c\	.	12cc\	-ben	-ki	.
.	.	.	N[24B\JJ)	]	.	.	.	.
*tuplet	*	*tuplet	*tuplet	*	*	*	*	*
!	!	!LO:TX:t=P:problem:klamra	!	!	!	!	!	!
!LO:TUP:b:problem:klamra łukowa	!	!LO:TUP:b:problem:klamra łukowa	!LO:TUP:a:problem:klamra łukowa	!LO:HP:t=cresc. e rit.	!	!	!	!
6F\	4GG 4GGG\	(>6c#X/	12B</N]	<	16cc#X\	ja-	chyb-	.
.	.	.	.	.	16cc#\	-gen	-ko	.
.	.	.	(6B-X</	.	.	.	.	.
.	.	.	.	.	16dd\	sich	mkną	.
!	!	!LO:SIC:v:s=12dn/	!	!	!	!	!	!
N[<12En\	.	12d-/	.	.	.	.	.	.
.	.	.	.	.	16dd\	wie	jas-	.
*v	*v	*	*	*	*	*	*	*
!!LO:LB:g=original
=3	=3	=3	=3	=3	=3	=3	=3
*	*	*	*	*^	*	*	*
*tuplet	*	*	*	*	*	*	*	*
!	!LO:TX:t=P:problem:klamra	!	!	!	!	!	!	!
!	!LO:TX:a:i:t=a tempo	!	!	!	!	!	!	!
!	!LO:TX:b:i:t=leggiero e gracioso	!	!	!	!	!	!	!
(>24FFF#X\LL	16d#X/)	16A#X< 16E</N])	.	8dd#X\	4ryy	Fi-	-kół-	.
24FF#X\	.	.	.	.	.	.	.	.
.	(16a#XLL 16g#X 16en'/	16ryy	.	.	.	.	.	.
24C#X\	.	.	.	.	.	.	.	.
24c#X\J	16an 16f#X 16d#X'/	8ryy	.	8a#X/	.	-sche	-ki	.
12F#X\J	.	.	.	.	.	.	.	.
.	16a#XJJ 16fn 16dn'/	.	.	.	.	.	.	.
*Xtuplet	*	*	*	*	*	*	*	*
24An 24Gn'\)	16f#X 16en 16c#X'/)	2ryy	.	16r	16ryy	.	.	.
(24BB-XLL 24BBB-X\	.	.	.	.	.	.	.	.
.	(16ddnLL 16ccn 16a-X'/	.	.	16ddn/	16r	ü-	.	.
24Fn\	.	.	.	.	.	.	.	.
24fn\J	16cc#X 16b-X 16gn'/	.	.	16cc#X/	16cc#\	-ber	nad	.
12B-X\J	.	.	.	.	.	.	.	.
.	16ddJJ 16an 16f#X'/	.	.	16dd/	16dd\	den	drzą-	.
24d-X 24c-X'\)	16b-X 16a-X 16fn'/)	.	.	8b-X\	4ryy	nas-	-cy-	.
(24DnLL 24DDn\	.	.	.	.	.	.	.	.
.	(16ff#XLL 16een 16ccn'\	.	.	.	.	.	.	.
24An\	.	.	.	.	.	.	.	.
24an\J	16ee#X 16ddn 16bn'\	.	.	8a#/	.	-sen	-mi	.
12dn\J	.	.	.	.	.	.	.	.
.	16ff#XJJ 16cc#X 16a#X'\)	.	.	.	.	.	.	.
*	*v	*v	*	*	*	*	*	*
*	*	*	*v	*v	*	*	*
=4	=4	=4	=4	=4	=4	=4
*M2/4	*M2/4	*	*M2/4	*	*	*
*	*^	*	*	*	*	*
*tuplet	*	*Xtuplet	*	*	*	*	*
!LO:TUP:b:problem:klamra łukowa	!	!LO:TX:t=P:problem:mixed beam	!LO:HP:a	!	!	!	!
12e-X\L)	(4aa-X 4ddn/	N(24bn\LL	mf >	4a-X/	Bir-	brzo-	.
.	.	24ccn\	.	.	.	.	.
12E-XJ 12EE-X\	.	24a-X\	.	.	.	.	.
.	.	24gn\	.	.	.	.	.
12ryy	.	24g-X</	.	.	.	.	.
.	.	24c-X</JJ	.	.	.	.	.
*	*	*tuplet	*	*	*	*	*
!LO:TX:t=P:problem:mixed beam	!LO:TX:b:i:t=molto rall.	!LO:TUP:b:problem:klamra łukowa	!	!	!	!	!
16B-X\LLN)	8ggL 8dd/	6g-\	]	8g/	-ken.	-zy.	.
(16EEEn/	.	.	.	.	.	.	.
16EEn/	8b-X/J)	.	.	8r	.	.	.
.	.	12g-X\	.	.	.	.	.
16D-X/JJ)	.	.	.	.	.	.	.
*	*v	*v	*	*	*	*	*
=5	=5	=5	=5	=5	=5	=5
*tuplet	*	*	*	*	*	*
!	!LO:TX:t=P:problem:n w nawiasie	!	!	!	!	!
!LO:TUP:b	!LO:TX:a:i:t=(poco più lento)	!	!LO:TX:a:i:t=(sehr ernst)	!	!	!
(>12C:L 12FFF:/	(8anL 8f/	<	4r	.	.	.
12G/	.	.	.	.	.	.
.	8b-XJ 8e/	.	.	.	.	.
12G-X/J	.	.	.	.	.	.
*	*Xtuplet	*	*	*	*	*
8FL 8DD-X/	12cc-XL 12e-X 12d-X/	[[	8r	.	.	.
!	!LO:TX:a:i:t=espr.	!	!	!	!	!
.	12en 12cn/	<	.	.	.	.
[>8GGn/J)	.	.	8fn/	Und	A	.
.	12fJ 12Bn/)	.	.	.	.	.
!!LO:LB:g=original
=6	=6	=6	=6	=6	=6	=6
*^	*^	*	*	*	*	*
!	!	!	!	!LO:DY:rj	!	!	!	!
(4GG/]	(>8CCCn\L	(4f#X/	2A#X 2E\	mf	4f#X/	du	łzy	.
.	8CCn\J	.	.	.	.	.	.	.
8FF#X/L)	4FF#\	4e/)	.	>	4ccn\	willst	w twych	.
8F#X/J)	.	.	.	.	.	.	.	.
*v	*v	*	*	*	*	*	*	*
*	*v	*v	*	*	*	*	*
*	*clefF4	*	*	*	*	*
=7	=7	=7	=7	=7	=7	=7
*M3/4	*M3/4	*	*M3/4	*	*	*
*Xtuplet	*	*	*	*	*	*
!LO:TX:t=P:problem:łuk	!	!	!	!	!	!
12BBBBn/L	(4c##X 4A#X 4G#X 4E#X\	.	4cc##X\	wei-	o-	.
12BBBn/	.	]	.	.	.	.
12FF#X/J	.	.	.	.	.	.
!LO:TX:t=P:problem:mixed beam	!	!	!	!	!	!
12BB\L	4d#X 4Bn 4F#X\)	.	4dd#X\	-nen?	-czach?	.
*	*clefG2	*	*	*	*	*
12F#X/	.	.	.	.	.	.
!LO:TX:t=P:problem:łuk	!	!LO:HP:t=dim. e rall.	!	!	!	!
12d#X>/J	.	>	.	.	.	.
4ryy	12e-X\L	.	4r	.	.	.
.	([<12ee-X\	.	.	.	.	.
.	(<12eee-XJ 12ee-\]	.	.	.	.	.
=8	=8	=8	=8	=8	=8	=8
*	*^	*	*	*	*	*
*tuplet	*	*	*	*	*	*	*
!	!	!	!	!LO:TX:a:i:t=a tempo (tempo I)	!	!	!
12BBB-XL 12BBBB-X/	4dddn 4ddn\))	4ryy	ppp	4r	.	.	.
*clefG2	*	*	*	*	*	*	*
!	!LO:TX:b:i:t=legat.	!	!	!	!	!	!
(<12fn/	.	.	.	.	.	.	.
12f#X/J	.	.	.	.	.	.	.
*Xtuplet	*	*tuplet	*	*Xtuplet	*	*	*
!	!	!LO:TUP:num=3	!	!	!	!	!
12gn/L	(12ffn/L	(24dd-X\LL	<	12fn/	In	Wnet	.
.	.	24ddn\	.	.	.	.	.
12An/	12gg-X/	24ccn\	.	12f#X/	dei-	du-	.
.	.	24cc-X\	.	.	.	.	.
12B-X/J	12ggn/J)	24b-X\	.	12gn/	-ner	-szę	.
.	.	24en\JJ)	[	.	.	.	.
*clefF4	*	*Xtuplet	*	*tuplet	*	*	*
!	!	!LO:TX:t=P:problem:mixed beam	!LO:HP:t=poco cresc.	!LO:TUP:a:problem:klamra łukowa	!	!	!
12F\L	(12a/L	(24e-X\LL	<	6een\	See-	two-	.
.	.	24f-X\	.	.	.	.	.
12G-X\	12b-X/	24dn\	.	.	.	.	.
.	.	24cn\	.	.	.	.	.
12AAn\J)	12bn/J)	24Bn\	.	12ee-X\	-le	-ją	.
.	.	N[>24D#X</JJ)	.	.	.	.	.
!!LO:LB:g=original
=9	=9	=9	=9	=9	=9	=9	=9
*^	*	*^	*	*	*	*	*
*tuplet	*	*	*	*	*	*	*	*	*
!	!	!LO:TX:b:i:t=rit.	!	!	!	!LO:TUP:a:problem:klamra łukowa	!	!	!
(>12D#X/LN]	8GG#X 8GGG#X\	(>8dd#XL 8f#X 8d#X/	4r)yy	2ryy	.	12r	.	.	.
12E/	.	.	.	.	.	12dd#X\	wer-	o-	.
.	8ryy	[>8cc#XJ [<8g#X [<8dn/	.	.	.	.	.	.	.
12E#/J	.	.	.	.	.	12cc#X\	-den	-lśni	.
*	*	*	*Xtuplet	*	*	*	*	*	*
!LO:TX:t=P:problem:mixed beam	!	!	!	!	!	!LO:TUP:a:problem:klamra łukowa	!	!	!
4B/)	8B\L	12cc#/L]	(24g#]LL 24d\]	.	>	6a#X/	bald	wi-	.
.	.	.	24en\	.	.	.	.	.	.
.	.	12a#X/	24c#X\	.	.	.	.	.	.
.	8GGnJ 8GGGn/	.	24cn\	.	.	.	.	.	.
.	.	12b/J)	24B\	.	.	12b\	die	-zya	.
.	.	.	(<24B-X\JJ)	.	]	.	.	.	.
*	*	*tuplet	*tuplet	*	*	*	*	*	*
!	!	!LO:TUP:b:problem:klamra łukowa	!LO:TUP:a:problem:klamra łukowa	!	!	!	!	!	!
!	!	!	!LO:TX:t=P:problem:klamra	!	!	!LO:TUP:a:problem:klamra łukowa	!	!	!
4FF#X 4FFF#X\	4ryy	(>6B#X/	12A#X</)	4E<\	<	6b#X\	blan-	zło-	.
.	.	.	6An</	.	.	.	.	.	.
.	.	12c#X/	.	.	[[	12cc#X\	-ken	-ta	.
*v	*v	*	*	*	*	*	*	*	*
*	*v	*v	*v	*	*	*	*	*
=10	=10	=10	=10	=10	=10	=10
*	*	*	*^	*	*	*
*Xtuplet	*	*	*	*	*	*	*
(>24CC#XLL 24CCC#X\	16en 16G#X< 16En</)	.	8een\	2ryy	Bäu-	pta-	.
!	!LO:TX:b:i:t=legg. e grac.	!	!	!	!	!	!
24GG#X\	.	.	.	.	.	.	.
.	(16a#XLL 16g#X 16en'/	.	.	.	.	.	.
24C#X\	.	.	.	.	.	.	.
24c#X\J	16an 16f#X 16d#X'/	.	8g#X/	.	-me	-ków	.
12G#X\J	.	.	.	.	.	.	.
.	16a#XJJ 16fn 16dn'/	.	.	.	.	.	.
24An 24Gn'\)	16f#X 16en 16c#X'/)	.	16r	.	.	.	.
(24BB-XLL 24BBB-X\	.	<	.	.	.	.	.
.	(16ddnLL 16ccn 16a-X'/	.	16ddn\	.	und	błę-	.
24Fn\	.	.	.	.	.	.	.
24fn\J	16cc#X 16b-X 16gn'/	<	16cc#X\	.	blau-	-kit-	.
12B-X\J	.	.	.	.	.	.	.
.	16ddnJJ 16an 16f#X'/	.	16dd\	.	-en	-nych	.
24d-X 24c-X'\)	16b-X 16a-X 16fn'/)	.	8b-X/	16b-\	Vö-	i	.
(24DnLL 24DDn\	.	.	.	.	.	.	.
.	(16ff#XLL 16een 16ccn'\	[	.	16a\	.	srebr-	.
24An\	.	.	.	.	.	.	.
24an\J	16ee#X 16ddn 16bn'\	.	16a/	16a\	-gel	-nych	.
12dn\J	.	.	.	.	.	.	.
.	16ff#JJ 16cc#X 16a#X'\)	.	16a/	16a\	ein	od	.
*	*	*	*v	*v	*	*	*
!!LO:PB:g=original
=11	=11	=11	=11	=11	=11	=11
*M2/4	*M2/4	*	*M2/4	*	*	*
*	*^	*	*^	*	*	*
*	*	*Xtuplet	*	*	*	*	*	*
!	!	!LO:TX:t=P:problem:mixed beam	!LO:DY:t=%s ma dolce	!	!LO:TUP:a:problem:klamra łukowa	!	!	!
8e-X\L)	(4aa-X 4ddn/	N(>24bn\LL	f	6ff\	4ryy	gold-	ro-	.
.	.	24ccn\	.	.	.	.	.	.
.	.	24a-X\	.	.	.	.	.	.
8E-XJ 8EE-X\	.	24gn\	.	.	.	.	.	.
.	.	24g-X</	.	12ff#X\	.	-nes	-sy	.
.	.	24c-X</JJ	.	.	.	.	.	.
*	*	*tuplet	*	*	*	*	*	*
!LO:TX:t=P:problem:mixed beam	!LO:TX:b:i:t=molto rall.	!LO:TUP:b:problem:klamra łukowa	!	!	!	!	!	!
16B-X\LLN)	8ggL 8dd/	6gny\	.	(<8ggn\L	8gg/	Bild	drzew.	.
(16EEEn/	.	.	.	.	.	.	.	.
16EEn/	8b-X/J)	.	.	8b-X\J)	8b-/	sein.	.	.
.	.	12g-X\	.	.	.	.	.	.
16D-X/JJ)	.	.	.	.	.	.	.	.
*	*v	*v	*	*	*	*	*	*
=12	=12	=12	=12	=12	=12	=12	=12
!	!LO:TX:t=P:problem:n w nawiasie	!	!	!	!	!	!
!LO:S:s=1:note:problem=note-level slur	!LO:TX:a:i:t=poco più lento espr.	!	!LO:TX:a:i:t=(sehr ernst)	!	!	!	!
(12CL: 12FFF:/	(>8anXL 8f/	<	4re	2rff	.	.	.
12G/	.	.	.	.	.	.	.
.	8b-XJ 8e/	.	.	.	.	.	.
12G-X/J	.	[[	.	.	.	.	.
*	*Xtuplet	*	*	*	*	*	*
!	!	!LO:HP:t=poco cresc.	!	!	!	!	!
8FL 8DD-X/	12cc-XL 12e-X 12d-X/	<	8re	.	.	.	.
.	12en 12cn/	.	.	.	.	.	.
[>8GGn/J)	.	.	8f\	.	.	w twych	.
.	12fJ 12B/)	.	.	.	.	.	.
*	*	*	*v	*v	*	*	*
=13	=13	=13	=13	=13	=13	=13
*^	*^	*	*	*	*	*
(4GG/]	(>8CCCn\L	(4f#X/	2A#X 2En\	.	4f#X/	Und	o-	.
.	8CCn\J	.	.	.	.	.	.	.
8FF#X/L)	4FF#\	4e/)	.	>	4ee\	du	-czach	.
8F#X/J)	.	.	.	.	.	.	.	.
*v	*v	*	*	*	*	*	*	*
*	*v	*v	*	*	*	*	*
*	*clefF4	*	*	*	*	*
=14	=14	=14	=14	=14	=14	=14
*M3/4	*M3/4	*	*M3/4	*	*	*
!	!LO:TX:b:i:t=rall.	!	!	!	!	!
(<8BBBBn/L	(4c##X 4A#X 4G#X 4E#X\	.	(4cc##X\	weinst?	łzy?	.
8BBBn/J	.	.	.	.	.	.
8FF#X/L	8d#X 8Bn 8F#X\)	]	4dd#X\)	.	.	.
8BBn/J	8r	.	.	.	.	.
8F#X\)	16r	.	4r	.	.	.
!	!LO:TX:a:i:t=a tempo (tempo I)	!	!	!	!	!
.	(16d#XLL 16c#X 16An'\	ppp	.	.	.	.
8r	16dn 16Bn 16G#X'\	.	.	.	.	.
.	16d#XJJ 16A#X 16F##X'\	.	.	.	.	.
!!LO:LB:g=original
=15	=15	=15	=15	=15	=15	=15
*^	*^	*	*^	*	*	*
8BBB 8BBBB/	4ryy	16Bn 16An 16F#X'\)	4ryy	.	8r	4e-X\	.	Wpi-	.
*	*	*clefG2	*	*	*	*	*	*	*
.	.	(16gnLL 16fn 16d-X'/	.	.	.	.	.	.	.
(>[>8E-X^^/	.	16g-X 16e-X 16cn'/	.	.	8e-X/	.	Mit	.	.
.	.	16gnJJ 16dn 16Bn'/)	.	.	.	.	.	.	.
!	!	!LO:TX:b:i:t=leg.	!	!	!	!	!	!	!
.	.	.	.	.	.	.	.	.	.
16E-/KL]	[4BB-X [4BBB-X\	(8e-XL 8d-X/	(>16G\LL	.	8e-/	2ryy	mei-	-jam	.
8En/	.	.	16A-X\	.	.	.	.	.	.
.	.	[8dd-X/J	16d-X\	.	8dd-X\	.	-nen	me	.
16F/Jk	.	.	16dn\JJ)	.	.	.	.	.	.
[4G-X/	8BB-]L 8BBB-\]	8dd-/L]	[16e-X'>\LL	.	8dd-\	.	Au-	o-	.
.	.	.	16g-X 16e-'>\]	.	.	.	.	.	.
.	8BB--J 8BBB--\	[8cc/J	16fn 16dn'>\	.	8cc\	.	-gen	-czy	.
!	!	!	!LO:TX:b:i:t=poco-a-poco-cresc.:ext=s:problem:text with extention lines	!	!	!	!	!	!
.	.	.	[>16g-JJ [>16e- 16d-X'>\	<	.	.	.	.	.
*	*	*	*	*	*v	*v	*	*	*
=16	=16	=16	=16	=16	=16	=16	=16	=16
8G-/L]	8AA-X 8AAA-X\	16cc]LL 16g-] 16e-] 16c/)	4ryy	.	4b-X\	seh	w two-	.
.	.	(16cc 16b-X 16g-X'/	.	.	.	.	.	.
[>8G-X/J	8ryy	16bn 16a-X 16fn'/	.	.	.	.	.	.
.	.	16ccJJ 16gn 16en'/)	.	.	.	.	.	.
16G-/KL]	4ryy	(8a-XL 8e-X 8cn/	16g-X\LL	[	(8a-X/	ich	-je_	.
8Bn/	.	.	16gn\	.	.	.	.	.
.	.	8gg-X/J	16a-X\	.	16a-/LL	in	.	.
16c/Jk	.	.	16an\JJ	.	16an/JJ)	.	.	.
!LO:TX:a:t=P:problem:mixed beam	!	!	!	!	!	!	!	!
4c#X/)	8c#\L	8ff#X/L	16cc#XLL 16a\	.	8a/	dei-	ma-	.
.	.	.	16cc# 16bn 16gn\	.	.	.	.	.
.	[>8GGnJ [8GGGn/	8een/J	16ccn 16a 16f#X\	.	8cc#X\	-nen	-łe	.
.	.	.	16cc#XJJ 16g#X 16e#X\	.	.	.	.	.
*v	*v	*	*	*	*	*	*	*
*	*v	*v	*	*	*	*	*
!!LO:LB:g=original
=17	=17	=17	=17	=17	=17	=17
*M2/4	*M2/4	*	*M2/4	*	*	*
*^	*^	*	*	*	*	*
*	*^	*	*	*	*	*	*	*
4ryy	8GG] 8GGG\]	4ryy	16an 16en/)	8c#\	<	8r	.	.	.
.	.	.	(16eeLL 16cc#X'\	.	.	.	.	.	.
.	4.GG 4.GGG\	.	16dd#X 16b#X'\	8ryy	[<	8dd#X\	zwei	pro-	.
.	.	.	[16eeJJ 16ddn 16bn'\)	.	.	.	.	.	.
!	!	!	!LO:TX:b:t=rit.	!	!	!	!	!	!
16eLL 16c#X/	.	6G\	8ee/L]	16dd-XLL 16b-X\	.	8ee\	klei-	-mien-	.
16d 16cn/	.	.	.	16ccn 16a\	.	.	.	.	.
16e-X 16B/	.	.	8ff/J	16ee-X 16bn 16g\	.	8ffn\	-ne	-ne	.
.	.	12B\	.	.	.	.	.	.	.
16d/JJ	.	.	.	16dd-\JJ	.	.	.	.	.
*v	*v	*v	*	*	*	*	*	*	*
*	*v	*v	*	*	*	*	*
=18	=18	=18	=18	=18	=18	=18
*M3/4	*M3/4	*	*M3/4	*	*	*
*	*^	*	*	*	*	*
!!LO:TX:a:B:t=Tempo I.
!	!	!	!LO:DY:t=%s dolce	!	!	!	!LO:DY:a
12FF#XL 12FFF#X/	[4ff#X~~/	4dd#X 4b 4f#X\	f	([2ff#X\	Son-	słoń-	<
*clefG2	*	*	*	*	*	*	*
(<12f#X/	.	.	.	.	.	.	.
12gn/J	.	.	.	.	.	.	.
12g#X/L	(12ff#/L]	(24ddn\LL	.	.	.	.	.
.	.	24ee-X\	.	.	.	.	.
12A#X/	12ggn/	24cc#X\	.	.	.	.	.
.	.	24ccn\	.	.	.	.	[
12B/J	12gg#X/J)	24b\	.	.	.	.	.
.	.	24e#X\JJ)	.	.	.	.	.
*clefF4	*	*	*	*	*	*	*
!	!	!LO:TX:t=P:problem:mixed beam	!LO:HP:t=rit. e dim.	!LO:TUP:a	!	!	!
12F#X\L	(12a#X/L	(>24enX\LL	>	12ff#\L]	.	.	.
.	.	24fn\	.	.	.	.	.
!	!	!	!	!	!	!	!LO:DY:a
12Gn\	12b/	24d#X\	.	12ffn\J)	.	.	>
.	.	24c#X\	.	.	.	.	.
12BB-X\J)	12ccn/J)	24cn\	.	12een\	-nen.	-ca.	]]
.	.	N[24En</JJ)	.	.	.	.	.
*	*v	*v	*	*	*	*	*
=19	=19	=19	=19	=19	=19	=19
*M2/4	*M2/4	*	*M2/4	*	*	*
*^	*^	*	*	*	*	*
*tuplet	*	*	*	*	*	*	*	*
!LO:TUP:a:problem:klamra łukowa	!LO:TUP:b:problem:klamra łukowa	!	!	!	!	!	!	!
6E/N]	12AA 12AAA\	(>8eenL 8gn 8en/	4ryy	p	2r	.	.	.
.	6GG#X 6GGG#X\	.	.	.	.	.	.	.
.	.	[>8cc#XJ [>8g#X [<8dn/	.	>	.	.	.	.
12E#X/	.	.	.	.	.	.	.	.
!LO:TX:a:t=P:problem:mixed beam	!	!	!	!	!	!	!	!
4B/	8B\L	12cc#/L]	(>24g#LL] 24d\]	>	.	.	.	.
.	.	.	24en\	.	.	.	.	.
.	.	12a#X/	24c#X\	.	.	.	.	.
!	!	!LO:TX:b:i:t=rall.	!	!	!	!	!	!
.	8GGnJ 8GGGn/	.	24cn\	.	.	.	.	.
.	.	12b/J)	24B\	.	.	.	.	.
.	.	.	24c\JJ	]]	.	.	.	.
*v	*v	*	*	*	*	*	*	*
*	*v	*v	*	*	*	*	*
!!LO:LB:g=original
=20	=20	=20	=20	=20	=20	=20
*M3/4	*M3/4	*	*M3/4	*	*	*
*Xtuplet	*	*	*	*	*	*
!	!LO:TX:a:i:t=a tempo	!	!	!	!	!
(>24FFF#X\LL	16c#X< 16A#X< 16En</)	.	8r	.	.	.
24FF#X\	.	.	.	.	.	.
.	(16a#XLL 16g#X 16en'/	pp <	.	.	.	.
24C#X\	.	.	.	.	.	.
24c#X\J	16an 16f#X 16d#X'/	.	16r	.	.	.
12F#X\J	.	.	.	.	.	.
.	16a#XJJ 16e#X 16c##X'/	.	[16a#X/	Und	A_	.
24An 24Gn'\)	16f#X 16en 16c#X'/)	.	16a#/]	.	.	.
(24FF#LL 24FFF#\	.	.	.	.	.	.
.	(16ddnLL 16ccn 16a-X'/	.	[8.ddn\	du_	ty	.
24Fn\	.	.	.	.	.	.
24fn\J	16dd-X 16b-X 16gn'/	.	.	.	.	.
12B-X\J	.	.	.	.	.	.
.	16ddnJJ 16an 16f#X'/	.	.	.	.	.
24d-X 24c-X'\)	16b-X 16a-X 16fn'/)	[<	16dd\]	.	się	.
(24FF#LL 24FFF#\	.	.	.	.	.	.
.	(16ff#XLL 16een 16ccn'\	.	[8.ff#X\	lä-	śmie-	<
24An\	.	.	.	.	.	.
24an\J	16ffn 16ddn 16bn'\	.	.	.	.	.
12dn\J)	.	.	.	.	.	.
.	[16ff#XJJ [16cc#X 16a#X'\)	.	.	.	.	.
=21	=21	=21	=21	=21	=21	=21
*M2/4	*M2/4	*	*M2/4	*	*	*
*^	*^	*	*	*	*	*
(<4d#X\	4ryy	8ff#]L 8cc#] 8an\	4ryy	<	2ff#\_	.	.	.
!	!	!	!	!LO:DY:t=%s molto rall. dim.	!	!	!	!
.	.	(8bb#XJ 8b#X\	.	f	.	.	.	.
4b 4g#X/	8e\L	4bbn 4gg#/	8.ccc#XL 8.cc#X\	.	.	.	.	[>
.	8e#X\J)	.	.	.	.	.	.	.
.	.	.	16ccc##XJk 16cc##X\)	.	.	.	.	.
*v	*v	*	*	*	*	*	*	*
*	*v	*v	*	*	*	*	*
=22	=22	=22	=22	=22	=22	=22
2BBB 2BBBB;/	(4ccc##X 4aa#X 4gg#X 4ee#X 4cc##X\	.	4ff#\]	.	.	.
.	4ddd#X 4bbn 4ff#X 4dd#X;\)	] ppp	4dd#X;\	-chelst.	-jesz.	]
==	==	==	==	==	==	==
*-	*-	*-	*-	*-	*-	*-
!!!system-decoration: g1{(g2)}
!!!RDF**kern: i = editorial accidental
!!!RDF**kern: > = above
!!!RDF**kern: < = below
!!!RDF**kern: N = linked
!!!RDF**dynam: > = "dim.", fontstyle= "italic"
!!!ENC: Berenika Jozajtis
!!!EED: Katarzyna Serwa
!!!END: 2023-10-03
!!!EEV: 2023-11-21
